X:102
T:Parson Upon Dorothy
T:The Shepherd's Daughter
Z:Jack Campin, http://www.campin.me.uk/
F:Jack Campin's Nine-Note Tunebook
% last edit 03-02-2013
M:C
L:1/8
Q:1/2=100
S:Playford, Dancing Master
K:GDor
D2|G3 G ABcA|B3c B2d2|c2B2 ABcA |B4 B2:|
d2|c2B2 ABcB|B3c B2d2|c2B2 ABcB |B4 B2:|
d2|c3 B A2c2|B3A G2B2|A2G2 G2^F2|G6   :|

